X: 1
T: Peach Blossoms
M: 4/4
L: 1/8
R: barndance
K: Dmaj
|: (3dcB |
A>df>d A>df>d | B2 g2 g2 e>d | c>ea>e c>ea>^g | b2 a2 f2 d>B |
A>df>d A>d (3fed | B2 g>f g2 e>d | c>eb>a ^g>a (3=gfe |1 d2 f2 d2 :|
2 d2 d2 dD ||
|: (3EFG |
A2 A2 (3Bcd d>e | f>dA>F A2 A2 | c>BG>E c2 B2 | B>A (3fed A2 A2 |
A2 (3FGA B>cd>e | f>dA>F A2 A2 | d>cB>c d>gf>e | d2 (3ddd d2 :|
K: Gmaj
|: d>c |
(3BcB G>B d>g (3bag | a2 e2 e2 a>g | (3fgf c2 c>e (3fed | (3efe d2 B2 d>c |
B>DG>B d>gb>g | a2 e2 e2 a>g | f>dc>A a>f (3dcA |1 G2 g2 Gd :|
2 G2 g2 G4 ||
K: Dmaj
|: A>df>d A>df>d | B2 g2 g2 e>d | c>ea>e c>ea>^g | b2 a2 a2 A>G |
A>df>d A>df>d | B2 g2 g2 e>d | c>eb>a ^g>a=g>e | d2 d2 d2 A>G :|
|:A2 A2 B>cd>e | f>dA>F A2 A2 | c>BG>E c2 c2 | b>af>d A2 A2 |
A2 (3AAA B>cd>e | f>dA>F A2 A2 | d>cB>c d>gf>e |1 d2 d2 d2 A>G :|
2 d2 d2 d2 d=c ||
K: Gmaj
|: B>DG>B d>gb>g | a2 e2 e2 a>g | f2 c2 c2 (3gfe | d2 B2 B2 d>c |
B2 G>B d>gb>g | a2 e2 e2 a>g|f>dc>A d>cA>F |1 G2 G2 G2 d>c :|
2 G2 G2 G2 A>G ||
